X: 17229
T: Her Long Dark Hair Flowing Down Her Back
R: hornpipe
M: 4/4
K: Amajor
AB|:cBAc BcAF|EA,CF E2AB|c3c (3BcB AB|cffe aefe|
c3c (3BcB AF|EA,CF E2AB|c2dc BAGE|[F3D3]F [F2D2]AB:|
|:c2 e2 e2 eB|AF ~FE [E4A,4]|f2fe fafe|dcBA (3BcB Ac|
eAfA eAcB|AF ~FE [E4A,4]|cBAc BAGE|[F3D3]E[F2D2]AB:|

